X:1415
T: Sleepy Maggie
S: "Passing Time" (Jim & Mary Coogan & friends)
N: "learned from Charlie Mulvihill"
L: 1/8
M: 6/8
Q: 350
R: jig
K: D
F/G/ | A2A ABc | d2A FDF | A2G EDE | B2A F2G |
A2A ABc | dfd A2F | GBA GFE | D3-D2 :|
e | f2 d AFA | f2d Adf | g2e fed | edB A2e |
f2d AFA | f2d A3 | Bgf edc | d3-d2 :|
